packages/components/src/telekom/icons/weather/overcast/default.svg

<?xml version="1.0" encoding="UTF-8"?>
<svg width="24px" height="24px" viewBox="0 0 24 24" version="1.1" xmlns="http://www.w3.org/2000/svg" xmlns:xlink="http://www.w3.org/1999/xlink">
    <title>icon/weather/overcast/default</title>
    <g id="icon/weather/overcast/default" stroke="none" stroke-width="1" fill="none" fill-rule="evenodd">
        <path d="M15.288,11.384 C16.421,11.384 17.514,11.7595 18.4085,12.45 C18.621,12.405 18.829,12.383 19.036,12.383 C20.726,12.383 22.121,13.671 22.2905,15.317 C23.343,15.9695 24,17.127 24,18.386 C24,20.3147097 22.4818939,21.8950323 20.5776678,21.9949816 L20.386,22 L12.4315,22 C10.2635,22 8.5,20.236 8.5,18.068 C8.5,16.638 9.2825,15.324 10.5205,14.635 C11.286,12.6775 13.163,11.384 15.288,11.384 Z M15.2875,12.8835 C13.7742917,12.8835 12.4387943,13.811546 11.9045842,15.2126077 L11.8395,15.398 L11.738,15.7155 L11.434,15.8525 C10.563,16.2455 10,17.115 10,18.068 C10,19.35536 11.0054656,20.41232 12.2718915,20.494817 L12.4315,20.5 L20.386,20.5 C21.552,20.5 22.5,19.552 22.5,18.386 C22.5,17.6080667 22.0696711,16.8954667 21.3903206,16.5278847 L21.241,16.4545 L20.7705,16.246 L20.7984315,15.7736575 C20.810895,15.423395 20.77845,15.10045 20.538,14.7165 C20.2745,14.2955 19.839,13.9925 19.331,13.907 C18.9485,13.8425 18.6545938,13.9194687 18.3549922,14.0221016 L18.05,14.129 L17.723,13.831 C17.052,13.22 16.1875,12.8835 15.2875,12.8835 Z M11.8395,1.302 C14.713,1.302 17.247,3.073 18.244,5.7425 C19.9285,6.6365 21,8.3975 21,10.318 C21,10.643 20.9665,10.9595 20.909,11.268 C20.4525,11.071 19.9615,10.946 19.449,10.903 C19.4795,10.712 19.5,10.5175 19.5,10.318 C19.5,8.94419048 18.7267574,7.68421315 17.5132815,7.05291524 L17.328,6.963 L17.024,6.826 L16.9225,6.5085 C16.2105,4.291 14.168,2.8015 11.8395,2.8015 C10.6061,2.8015 9.41582,3.23095778 8.4597237,4.01629348 L8.2585,4.19 L7.931,4.487 L7.5125,4.344 C7.219,4.244 6.9185,4.193 6.619,4.193 C5.15288889,4.193 3.94920302,5.34192181 3.86205223,6.78699502 L3.857,6.955 L3.8875,7.596 L3.421,7.8045 C2.254,8.326 1.5,9.4865 1.5,10.761 C1.5,12.4854138 2.85452081,13.8993971 4.55547517,13.9948628 L4.739,14 L8.8395,14 C8.4255,14.3664286 8.0717449,14.7927347 7.78799563,15.2619155 L7.652,15.5 L4.739,15.5 C2.126,15.5 0,13.3745 0,10.761 C0,9.062 0.9145,7.502 2.367,6.661 C2.5185,4.4475 4.368,2.6935 6.619,2.6935 C6.939,2.6935 7.2585,2.7305 7.574,2.8035 C8.7865,1.8325 10.2855,1.302 11.8395,1.302 Z" id="Shape" fill="#262626" fill-rule="nonzero"></path>
    </g>
</svg>

<svg width="24" height="24" xmlns="http://www.w3.org/2000/svg"><path d="M15.288 11.384c1.133 0 2.226.375 3.12 1.066.213-.045.421-.067.628-.067a3.276 3.276 0 013.255 2.934A3.615 3.615 0 0124 18.386a3.618 3.618 0 01-3.422 3.609l-.192.005h-7.954A3.936 3.936 0 018.5 18.068c0-1.43.783-2.744 2.02-3.433a5.104 5.104 0 014.768-3.251zm0 1.5a3.61 3.61 0 00-3.383 2.329l-.066.185-.101.318-.304.136A2.436 2.436 0 0010 18.069a2.435 2.435 0 002.272 2.427l.16.005h7.954a2.116 2.116 0 002.114-2.114c0-.778-.43-1.49-1.11-1.858l-.149-.073-.47-.209.027-.472c.013-.35-.02-.674-.26-1.057a1.775 1.775 0 00-1.207-.81c-.383-.065-.676.012-.976.115l-.305.107-.327-.298a3.611 3.611 0 00-2.435-.947zM11.838 1.301a6.816 6.816 0 016.405 4.44A5.191 5.191 0 0121 10.319c0 .325-.034.642-.091.95a4.662 4.662 0 00-1.46-.365c.03-.191.051-.386.051-.585a3.69 3.69 0 00-1.987-3.265l-.185-.09-.304-.137-.102-.317A5.322 5.322 0 0011.84 2.8c-1.233 0-2.423.43-3.38 1.215l-.2.174-.328.297-.418-.143a2.767 2.767 0 00-.894-.151 2.766 2.766 0 00-2.757 2.594l-.005.168.03.641-.466.208A3.244 3.244 0 001.5 10.761a3.243 3.243 0 003.055 3.234L4.74 14h4.1a5.454 5.454 0 00-1.051 1.262l-.136.238H4.739A4.744 4.744 0 010 10.761c0-1.699.914-3.259 2.367-4.1a4.267 4.267 0 014.252-3.967c.32 0 .64.037.955.11a6.815 6.815 0 014.265-1.502z" fill="#000" fill-rule="evenodd"/></svg>
